X:272
T:Donald's Awa Tae the War
S:Loose Sheet - Ayr & Prestwick Strathspey & Reel Soc
Z:Nigel Gatherer
M:6/8
L:1/8
K:A
e|a2 A ABA|cdc cBA|e2 f e2 c|cBA B2 e|a2 A ABA|cdc cBA|
e2 f e2 c|BGB A2:|e|efg a2 g|fdf edc|efg a2 g|fdf e2 c|
efg a2 e|faf ecA|e2 f e2 c|BGB A2 e|efg a2 g|fdf edc|
efg a2 g|fdf e2 c|aga a2 e|faf ecA|e2 f e2 c|BGB A2|]
<end>
<start>
